X:1
T:Title
%%score 1 2 3
L:1/8
Q:1/4=180
M:3/2
K:C
V:1 treble nm="Grand Piano"
V:2 bass nm="Grand Piano, Melody"
V:3 bass nm="Grand Piano"
V:1
 z4 z4 c4 | e8 d4 | c8 d4 | e8 e4 | d8 e2 d2 | e8 d2 c2 | A8 A4 | c8 c2 B2 | A8 c2 d2 | e8 B2 A2 | %10
 G8 g4 | e8 e2 d2 | c8 d4 | e8 A4 | c8 c2 B2 | A8 c2 d2 | e8 B2 A2 | G8 g4 | e8 e2 d2 | c8 d4 | %20
 e12 |] %21
V:2
 z4 z4 A,4 | A,8 G,2 A,2 | C8[K:treble] D2 C2 | A,8 E4 | G8 E2 D2 | C8 D4 | E8 E4 | G8 E2 D2 | %8
 E8 D2 C2 | A,8 G,2 E,2 | G,8 G,4 | A,8 G,2 A,2 | C8 D2 C2 | A,8 E4 | G8 E2 D2 | E8 D2 C2 | %16
 A,8 G,2 E,2 | G,8 G,4 | A,8 G,2[K:treble] A,2 | C8 D2 C2 | A,12 |] %21
V:3
 z4 z4 A,4 | A,8 D,4 | E,8 E,4 | A,,8 A,4 | G,8 C2 B,2 | A,8 G,4 | E,8 A,4 | G,8 A,2 B,2 | %8
 A,8 E,4 | A,,8 C,4 | G,8 C,4 | A,,8 C,2 D,2 | E,8 E,4 | A,,8 A,4 | G,8 A,2 B,2 | A,8 E,4 | %16
 A,,8 C,4 | G,8 C,4 | A,,8 C,2 D,2 | E,8 E,4 | A,,12 |] %21

